Hatter-kde/actions/16/object-order-lower.svg

<svg xmlns="http://www.w3.org/2000/svg" viewBox="0 0 16 16">
  <defs id="defs3051">
    <style type="text/css" id="current-color-scheme">
      .ColorScheme-Text {
        color:#363636;
      }
      </style>
  </defs>
 <path style="fill:currentColor;fill-opacity:1;stroke:none" 
     d="M 4 2 L 4 6 L 4 8.03125 L 2.65625 6.59375 L 2 7.28125 L 4.3125 9.78125 L 4.5 10 L 4.6875 9.78125 L 7 7.28125 L 6.34375 6.59375 L 5 8.03125 L 5 6 L 5 2 L 4 2 z M 7 3 L 7 4 L 14 4 L 14 3 L 7 3 z M 9 5 L 9 6 L 14 6 L 14 5 L 9 5 z M 8 7 L 8 8 L 14 8 L 14 7 L 8 7 z M 9 9 L 9 10 L 14 10 L 14 9 L 9 9 z M 2 11 L 2 12 L 14 12 L 14 11 L 2 11 z M 8 13 L 8 14 L 14 14 L 14 13 L 8 13 z "
     class="ColorScheme-Text"
     />
</svg>

<?xml version="1.0" encoding="UTF-8"?>
<svg viewBox="0 0 16 16" xmlns="http://www.w3.org/2000/svg">
 <defs id="defs3051">
  <style id="current-color-scheme" type="text/css">.ColorScheme-Text {
        color:#363636;
      }</style>
 </defs>
 <path class="ColorScheme-Text" d="m4 2v4 2.0312l-1.3438-1.4375-0.65625 0.6875 2.3125 2.5 0.1875 0.21875 0.1875-0.21875 2.3125-2.5-0.65625-0.6875-1.3438 1.4375v-2.0312-4h-1zm3 1v1h7v-1h-7zm2 2v1h5v-1h-5zm-1 2v1h6v-1h-6zm1 2v1h5v-1h-5zm-7 2v1h12v-1h-12zm6 2v1h6v-1h-6z" fill="currentColor"/>
</svg>
